;FLAVOR:Marlin
;TIME:3622
;Filament used: 2.6952m
;Layer height: 0.28
;MINX:82.618
;MINY:57.042
;MINZ:0.28
;MAXX:137.382
;MAXY:129.835
;MAXZ:15.96
;Generated with Creality Slicer 4.8.2-146
M140 S50
M105
M190 S50
M104 S200
M105
M109 S200
M82 ;absolute extrusion mode
M201 X500.00 Y500.00 Z100.00 E5000.00 ;Setup machine max acceleration
M203 X500.00 Y500.00 Z10.00 E50.00 ;Setup machine max feedrate
M204 P500.00 R1000.00 T500.00 ;Setup Print/Retract/Travel acceleration
M205 X8.00 Y8.00 Z0.40 E5.00 ;Setup Jerk
M220 S100 ;Reset Feedrate
M221 S100 ;Reset Flowrate

G28 ;Home

G92 E0 ;Reset Extruder
G1 Z2.0 F3000 ;Move Z Axis up
G1 X10.1 Y20 Z0.28 F5000.0 ;Move to start position
G1 X10.1 Y200.0 Z0.28 F1500.0 E15 ;Draw the first line
G1 X10.4 Y200.0 Z0.28 F5000.0 ;Move to side a little
G1 X10.4 Y20 Z0.28 F1500.0 E30 ;Draw the second line
G92 E0 ;Reset Extruder
G1 Z2.0 F3000 ;Move Z Axis up

G92 E0
G92 E0
G1 F2700 E-5
;LAYER_COUNT:57
;LAYER:0
M107
G0 F6000 X84.81 Y64.112 Z0.28
;TYPE:SKIRT
G1 F2700 E0
G1 F1200 X85.393 Y63.377 E0.04368
G1 X86.037 Y62.695 E0.08736
G1 X86.532 Y62.242 E0.11861
G1 X87.104 Y61.75 E0.15374
G1 X88.258 Y60.783 E0.22384
G1 X88.714 Y60.381 E0.25215
G1 X88.881 Y60.237 E0.26242
G1 X89.27 Y59.908 E0.28614
G1 X90.011 Y59.334 E0.32979
G1 X90.798 Y58.824 E0.37345
G1 X91.626 Y58.384 E0.41712
G1 X92.489 Y58.016 E0.4608
G1 X93.45 Y57.703 E0.50786
G1 X93.635 Y57.652 E0.5168
G1 X94.549 Y57.441 E0.56048
G1 X95.477 Y57.309 E0.60412
G1 X96.427 Y57.257 E0.64843
G1 X97.062 Y57.25 E0.678
G1 X98.052 Y57.25 E0.7241
G1 X100.64 Y57.213 E0.84462
G1 X103.493 Y57.089 E0.97759
G1 X104.256 Y57.045 E1.01318
G1 X105.492 Y57.042 E1.07073
G1 X106.501 Y57.097 E1.11778
G1 X109.083 Y57.201 E1.23811
G1 X111.575 Y57.232 E1.35416
G1 X114.186 Y57.189 E1.47575
G1 X114.568 Y57.175 E1.49355
G1 X115.03 Y57.165 E1.51507
G1 X115.665 Y57.172 E1.54464
G1 X119.459 Y57.249 E1.72134
G1 X123.008 Y57.251 E1.8866
G1 X123.668 Y57.26 E1.91733
G1 X124.604 Y57.313 E1.96099
G1 X125.533 Y57.445 E2.00468
G1 X126.447 Y57.656 E2.04836
G1 X127.339 Y57.944 E2.092
G1 X128.383 Y58.393 E2.14492
G1 X128.529 Y58.465 E2.1525
G1 X129.352 Y58.916 E2.1962
G1 X130.133 Y59.434 E2.23984
G1 X130.803 Y59.962 E2.27956
G1 X132.448 Y61.366 E2.38026
G1 X133.511 Y62.289 E2.44582
G1 X134.192 Y62.934 E2.48949
G1 X134.816 Y63.634 E2.53316
G1 X135.378 Y64.385 E2.57684
G1 X135.874 Y65.181 E2.62051
G1 X136.301 Y66.016 E2.66418
G1 X136.654 Y66.885 E2.70785
G1 X136.933 Y67.78 E2.75151
G1 X137.081 Y68.416 E2.78191
G1 X137.14 Y68.708 E2.79578
G1 X137.286 Y69.635 E2.83948
G1 X137.355 Y70.651 E2.8869
G1 X137.379 Y71.771 E2.93906
G1 X137.382 Y72.007 E2.95005
G1 X137.381 Y76.345 E3.15205
G1 X137.37 Y77.059 E3.1853
G1 X137.315 Y77.996 E3.22901
G1 X137.238 Y78.596 E3.25717
G1 X137.076 Y79.625 E3.30568
G1 X136.709 Y82.207 E3.42712
G1 X136.427 Y84.677 E3.54288
G1 X136.21 Y87.216 E3.66153
G1 X136.069 Y89.717 E3.77818
G1 X135.997 Y92.212 E3.8944
G1 X135.997 Y94.737 E4.01198
G1 X136.067 Y97.259 E4.12946
G1 X136.211 Y99.801 E4.24801
G1 X136.422 Y102.279 E4.36382
G1 X136.703 Y104.766 E4.48036
G1 X137.063 Y107.302 E4.59963
G1 X137.156 Y107.866 E4.62625
G1 X137.248 Y108.476 E4.65497
G1 X137.365 Y109.759 E4.71496
G1 X137.375 Y110.136 E4.73252
G1 X137.381 Y110.679 E4.75781
G1 X137.38 Y115.452 E4.98006
G1 X137.369 Y116.194 E5.01461
G1 X137.276 Y117.466 E5.074
G1 X137.266 Y117.542 E5.07757
G1 X137.186 Y118.056 E5.10179
G1 X137.139 Y118.317 E5.11414
G1 X136.933 Y119.233 E5.15786
G1 X136.77 Y119.781 E5.18448
G1 X136.446 Y120.661 E5.22815
G1 X136.048 Y121.51 E5.27181
G1 X135.579 Y122.322 E5.31547
G1 X135.043 Y123.091 E5.35912
G1 X134.443 Y123.812 E5.4028
G1 X133.783 Y124.479 E5.44649
G1 X133.329 Y124.879 E5.47466
G1 X133.077 Y125.089 E5.48994
G1 X131.606 Y126.336 E5.57973
G1 X130.848 Y126.993 E5.62644
G1 X130.114 Y127.577 E5.67012
G1 X128.981 Y128.299 E5.73268
G1 X128.871 Y128.36 E5.73854
G1 X128.032 Y128.779 E5.7822
G1 X127.16 Y129.126 E5.8259
G1 X126.262 Y129.397 E5.86958
G1 X125.345 Y129.59 E5.91322
G1 X124.414 Y129.705 E5.9569
G1 X123.86 Y129.735 E5.98273
G1 X123.521 Y129.745 E5.99852
G1 X123.197 Y129.75 E6.01361
G1 X118.454 Y129.75 E6.23447
G1 X115.841 Y129.754 E6.35614
G1 X115.159 Y129.745 E6.3879
G1 X114.632 Y129.728 E6.41245
G1 X112.023 Y129.659 E6.53398
G1 X109.506 Y129.665 E6.65118
G1 X106.978 Y129.742 E6.76895
G1 X106.266 Y129.782 E6.80216
G1 X105.272 Y129.826 E6.84849
G1 X104.556 Y129.835 E6.88183
G1 X100.531 Y129.751 E7.06929
G1 X96.995 Y129.749 E7.23394
G1 X96.338 Y129.74 E7.26454
G1 X95.402 Y129.687 E7.30819
G1 X94.473 Y129.555 E7.35188
G1 X93.56 Y129.344 E7.39552
G1 X92.667 Y129.056 E7.43921
G1 X91.715 Y128.651 E7.48738
G1 X91.551 Y128.572 E7.49586
G1 X90.724 Y128.129 E7.53954
G1 X89.938 Y127.618 E7.5832
G1 X89.205 Y127.047 E7.62646
G1 X88.78 Y126.684 E7.65249
G1 X87.411 Y125.487 E7.73717
G1 X86.765 Y124.947 E7.77637
G1 X85.954 Y124.197 E7.82781
G1 X85.824 Y124.064 E7.83647
G1 X85.197 Y123.366 E7.88016
G1 X84.633 Y122.617 E7.92382
G1 X84.134 Y121.823 E7.96748
G1 X83.704 Y120.989 E8.01118
G1 X83.348 Y120.122 E8.05482
G1 X83.066 Y119.227 E8.09851
G1 X82.852 Y118.258 E8.14472
G1 X82.803 Y117.976 E8.15805
G1 X82.682 Y117.046 E8.20172
G1 X82.643 Y116.32 E8.23557
G1 X82.62 Y115.208 E8.28736
G1 X82.618 Y114.981 E8.29793
G1 X82.619 Y110.655 E8.49937
G1 X82.63 Y109.941 E8.53262
G1 X82.685 Y109.004 E8.57633
G1 X82.762 Y108.404 E8.60449
G1 X82.924 Y107.375 E8.653
G1 X83.291 Y104.793 E8.77444
G1 X83.573 Y102.323 E8.8902
G1 X83.79 Y99.784 E9.00885
G1 X83.931 Y97.283 E9.1255
G1 X84.003 Y94.788 E9.24172
G1 X84.003 Y92.263 E9.3593
G1 X83.932 Y89.739 E9.47687
G1 X83.789 Y87.2 E9.59528
G1 X83.578 Y84.721 E9.71113
G1 X83.297 Y82.233 E9.82772
G1 X82.934 Y79.68 E9.9478
G1 X82.842 Y79.124 E9.97404
G1 X82.75 Y78.51 E10.00295
G1 X82.635 Y77.246 E10.06205
G1 X82.625 Y76.864 E10.07984
G1 X82.619 Y76.321 E10.10513
G1 X82.62 Y71.504 E10.32943
G1 X82.63 Y70.824 E10.36109
G1 X82.701 Y69.734 E10.41196
G1 X82.712 Y69.638 E10.41646
G1 X82.815 Y68.934 E10.44959
G1 X82.86 Y68.685 E10.46137
G1 X83.066 Y67.77 E10.50504
G1 X83.439 Y66.639 E10.5605
G1 X83.464 Y66.575 E10.5637
G1 X83.842 Y65.716 E10.6074
G1 X84.292 Y64.893 E10.65107
G1 X84.495 Y64.587 E10.66817
G0 F1080 X84.81 Y64.112
G0 F6000 X85.164 Y64.306
G1 F1200 X85.74 Y63.588 E10.71103
G1 X86.377 Y62.923 E10.75391
G1 X86.793 Y62.545 E10.78009
G1 X87.361 Y62.057 E10.81496
G1 X88.495 Y61.106 E10.88387
G1 X88.978 Y60.681 E10.91383
G1 X89.528 Y60.214 E10.94742
G1 X90.256 Y59.65 E10.99031
G1 X91.03 Y59.152 E11.03316
G1 X91.845 Y58.723 E11.07605
G1 X92.693 Y58.366 E11.11889
G1 X93.556 Y58.088 E11.16111
G1 X93.741 Y58.037 E11.17005
G1 X94.638 Y57.831 E11.2129
G1 X95.55 Y57.704 E11.25578
G1 X96.432 Y57.657 E11.2969
G1 X97.062 Y57.65 E11.32624
G1 X98.058 Y57.65 E11.37262
G1 X100.663 Y57.613 E11.49393
G1 X103.466 Y57.491 E11.62457
G1 X104.279 Y57.444 E11.66249
G1 X105.471 Y57.442 E11.718
G1 X106.465 Y57.496 E11.76435
G1 X109.062 Y57.601 E11.88538
G1 X111.577 Y57.632 E12.0025
G1 X114.159 Y57.59 E12.12274
G1 X114.583 Y57.574 E12.1425
G1 X115.036 Y57.565 E12.1636
G1 X115.554 Y57.57 E12.18772
G1 X119.451 Y57.649 E12.36922
G1 X123.003 Y57.651 E12.53461
G1 X123.663 Y57.66 E12.56535
G1 X124.582 Y57.713 E12.60821
G1 X125.493 Y57.845 E12.65107
G1 X126.389 Y58.055 E12.69392
G1 X127.264 Y58.343 E12.73682
G1 X128.206 Y58.752 E12.78464
G1 X128.352 Y58.824 E12.79222
G1 X129.16 Y59.267 E12.83513
G1 X129.925 Y59.778 E12.87796
G1 X130.543 Y60.267 E12.91466
G1 X132.186 Y61.668 E13.0152
G1 X133.249 Y62.591 E13.08075
G1 X133.917 Y63.224 E13.12361
G1 X134.528 Y63.913 E13.16649
G1 X135.077 Y64.652 E13.20935
G1 X135.559 Y65.437 E13.25225
G1 X135.972 Y66.259 E13.29508
G1 X136.312 Y67.115 E13.33797
G1 X136.576 Y67.997 E13.38084
G1 X136.689 Y68.496 E13.40467
G1 X136.748 Y68.788 E13.41854
G1 X136.891 Y69.697 E13.46138
G1 X136.956 Y70.66 E13.50633
G1 X136.98 Y71.78 E13.55849
G1 X136.982 Y72.007 E13.56906
G1 X136.981 Y76.339 E13.77078
G1 X136.97 Y77.053 E13.80403
G1 X136.916 Y77.972 E13.8469
G1 X136.843 Y78.534 E13.87328
G1 X136.678 Y79.583 E13.92273
G1 X136.314 Y82.137 E14.04286
G1 X136.026 Y84.669 E14.16152
G1 X135.813 Y87.161 E14.27798
G1 X135.67 Y89.682 E14.39556
G1 X135.597 Y92.235 E14.51448
G1 X135.597 Y94.748 E14.6315
G1 X135.668 Y97.294 E14.7501
G1 X135.809 Y99.788 E14.86641
G1 X136.024 Y102.321 E14.98479
G1 X136.308 Y104.831 E15.10241
G1 X136.668 Y107.364 E15.22154
G1 X136.734 Y107.757 E15.2401
G1 X136.852 Y108.535 E15.27674
G1 X136.965 Y109.772 E15.33458
G1 X136.975 Y110.14 E15.35172
G1 X136.981 Y110.679 E15.37682
G1 X136.98 Y115.446 E15.59879
G1 X136.969 Y116.188 E15.63334
G1 X136.879 Y117.414 E15.69059
G1 X136.869 Y117.49 E15.69415
G1 X136.792 Y117.986 E15.71753
G1 X136.745 Y118.247 E15.72988
G1 X136.543 Y119.145 E15.77274
G1 X136.389 Y119.659 E15.79772
G1 X136.07 Y120.522 E15.84056
G1 X135.678 Y121.355 E15.88343
G1 X135.214 Y122.15 E15.92629
G1 X134.683 Y122.903 E15.9692
G1 X134.089 Y123.606 E16.01205
G1 X133.437 Y124.255 E16.05489
G1 X133.074 Y124.571 E16.0773
G1 X132.789 Y124.808 E16.09456
G1 X131.389 Y125.995 E16.18003
G1 X130.586 Y126.691 E16.22951
G1 X129.865 Y127.263 E16.27236
G1 X128.787 Y127.949 E16.33186
G1 X128.677 Y128.01 E16.33772
G1 X127.853 Y128.421 E16.38059
G1 X126.997 Y128.759 E16.42345
G1 X126.114 Y129.022 E16.46635
G1 X125.212 Y129.207 E16.50923
G1 X123.849 Y129.335 E16.57297
G1 X123.51 Y129.345 E16.58876
G1 X123.197 Y129.35 E16.60334
G1 X118.454 Y129.35 E16.82419
G1 X115.846 Y129.354 E16.94563
G1 X115.164 Y129.345 E16.97739
G1 X114.887 Y129.338 E16.9903
G1 X114.582 Y129.326 E17.00451
G1 X112.033 Y129.259 E17.12324
G1 X109.493 Y129.265 E17.24151
G1 X106.943 Y129.343 E17.36031
G1 X106.249 Y129.383 E17.39268
G1 X105.255 Y129.427 E17.43901
G1 X104.565 Y129.435 E17.47114
G1 X100.54 Y129.351 E17.6586
G1 X97.001 Y129.349 E17.82339
G1 X96.344 Y129.34 E17.85399
G1 X95.425 Y129.287 E17.89685
G1 X94.514 Y129.155 E17.93971
G1 X93.617 Y128.945 E17.98261
G1 X92.743 Y128.657 E18.02546
G1 X91.889 Y128.291 E18.06873
G1 X91.725 Y128.212 E18.0772
G1 X90.914 Y127.777 E18.12005
G1 X90.143 Y127.273 E18.16295
G1 X89.464 Y126.742 E18.20308
G1 X89.043 Y126.383 E18.22885
G1 X87.67 Y125.183 E18.31376
G1 X87.021 Y124.64 E18.35316
G1 X86.24 Y123.917 E18.40272
G1 X86.11 Y123.784 E18.41138
G1 X85.495 Y123.099 E18.45424
G1 X84.943 Y122.362 E18.49712
G1 X84.456 Y121.581 E18.53997
G1 X84.039 Y120.76 E18.58285
G1 X83.695 Y119.906 E18.62572
G1 X83.427 Y119.025 E18.6686
G1 X83.246 Y118.19 E18.70839
G1 X83.197 Y117.908 E18.72171
G1 X83.079 Y116.995 E18.76458
G1 X83.043 Y116.312 E18.79643
G1 X83.02 Y115.2 E18.84822
G1 X83.018 Y114.981 E18.85842
G1 X83.019 Y110.661 E19.05957
G1 X83.03 Y109.947 E19.09283
G1 X83.084 Y109.028 E19.13569
G1 X83.157 Y108.466 E19.16208
G1 X83.322 Y107.417 E19.21153
G1 X83.686 Y104.863 E19.33165
G1 X83.974 Y102.331 E19.45031
G1 X84.187 Y99.839 E19.56678
G1 X84.33 Y97.318 E19.68435
G1 X84.403 Y94.765 E19.80328
G1 X84.403 Y92.252 E19.9203
G1 X84.332 Y89.706 E20.03889
G1 X84.192 Y87.214 E20.15511
G1 X83.975 Y84.675 E20.27377
G1 X83.692 Y82.168 E20.39125
G1 X83.332 Y79.636 E20.51034
G1 X83.238 Y79.065 E20.53728
G1 X83.146 Y78.451 E20.56619
G1 X83.035 Y77.233 E20.62314
G1 X83.025 Y76.86 E20.64052
G1 X83.019 Y76.321 E20.66562
G1 X83.02 Y71.51 E20.88964
G1 X83.03 Y70.83 E20.9213
G1 X83.098 Y69.779 E20.97034
G1 X83.109 Y69.683 E20.97484
G1 X83.209 Y69.005 E21.00676
G1 X83.254 Y68.756 E21.01854
G1 X83.457 Y67.858 E21.06141
G1 X83.812 Y66.784 E21.11408
G1 X83.837 Y66.72 E21.11728
G1 X84.208 Y65.878 E21.16012
G1 X84.652 Y65.071 E21.20301
G1 X84.847 Y64.779 E21.21936
G0 F1080 X85.164 Y64.306
G0 F6000 X85.517 Y64.501
G1 F1200 X86.087 Y63.8 E21.26143
G1 X86.716 Y63.153 E21.30345
G1 X87.054 Y62.848 E21.32465
G1 X87.618 Y62.363 E21.35929
G1 X88.777 Y61.392 E21.42969
G1 X89.243 Y60.981 E21.45862
G1 X89.397 Y60.848 E21.4681
G1 X89.786 Y60.519 E21.49182
G1 X90.501 Y59.967 E21.53388
G1 X91.262 Y59.48 E21.57595
G1 X92.062 Y59.063 E21.61796
G1 X92.897 Y58.718 E21.66003
G1 X93.662 Y58.474 E21.69742
G1 X93.847 Y58.423 E21.70636
G1 X94.728 Y58.222 E21.74843
G1 X95.622 Y58.099 E21.79045
G1 X96.437 Y58.057 E21.82845
G1 X97.062 Y58.05 E21.85756
G1 X98.064 Y58.05 E21.90422
G1 X100.685 Y58.013 E22.02627
G1 X103.44 Y57.893 E22.15468
G1 X104.302 Y57.843 E22.19488
G1 X105.449 Y57.841 E22.24829
G1 X106.426 Y57.894 E22.29385
G1 X109.077 Y58.001 E22.4174
G1 X111.578 Y58.032 E22.53386
G1 X114.181 Y57.99 E22.65508
G1 X114.807 Y57.968 E22.68425
G1 X115.043 Y57.964 E22.69524
G1 X115.665 Y57.972 E22.72421
G1 X119.443 Y58.049 E22.90016
G1 X122.997 Y58.051 E23.06565
G1 X123.657 Y58.06 E23.09639
G1 X124.559 Y58.112 E23.13846
G1 X125.452 Y58.244 E23.18049
G1 X126.33 Y58.454 E23.22253
G1 X127.187 Y58.742 E23.26463
G1 X128.029 Y59.111 E23.30743
G1 X128.175 Y59.183 E23.31501
G1 X128.967 Y59.618 E23.35709
G1 X129.717 Y60.121 E23.39914
G1 X130.284 Y60.571 E23.43285
G1 X131.923 Y61.97 E23.53319
G1 X132.986 Y62.893 E23.59874
G1 X133.641 Y63.515 E23.6408
G1 X134.239 Y64.192 E23.68286
G1 X134.774 Y64.92 E23.72493
G1 X135.243 Y65.691 E23.76695
G1 X135.642 Y66.502 E23.80904
G1 X135.967 Y67.344 E23.85106
G1 X136.297 Y68.575 E23.91041
G1 X136.356 Y68.867 E23.92428
G1 X136.495 Y69.759 E23.96632
G1 X136.556 Y70.668 E24.00874
G1 X136.58 Y71.788 E24.0609
G1 X136.582 Y72.007 E24.0711
G1 X136.581 Y76.333 E24.27254
G1 X136.57 Y77.047 E24.30579
G1 X136.516 Y77.949 E24.34786
G1 X136.448 Y78.472 E24.37242
G1 X136.282 Y79.531 E24.42233
G1 X135.92 Y82.072 E24.54185
G1 X135.629 Y84.629 E24.66168
G1 X135.414 Y87.135 E24.7788
G1 X135.27 Y89.685 E24.89773
G1 X135.197 Y92.223 E25.01596
G1 X135.197 Y94.759 E25.13404
G1 X135.268 Y97.291 E25.25199
G1 X135.412 Y99.845 E25.3711
G1 X135.626 Y102.364 E25.48882
G1 X135.909 Y104.866 E25.60607
G1 X136.273 Y107.426 E25.72647
G1 X136.365 Y107.985 E25.75285
G1 X136.457 Y108.595 E25.78158
G1 X136.566 Y109.785 E25.83722
G1 X136.575 Y110.145 E25.85399
G1 X136.581 Y110.679 E25.87886
G1 X136.58 Y115.44 E26.10055
G1 X136.569 Y116.182 E26.1351
G1 X136.483 Y117.362 E26.19019
G1 X136.473 Y117.438 E26.19376
G1 X136.399 Y117.915 E26.21624
G1 X136.352 Y118.176 E26.22859
G1 X136.026 Y119.483 E26.29131
G1 X136.009 Y119.536 E26.2939
G1 X135.695 Y120.383 E26.33597
G1 X135.308 Y121.199 E26.37802
G1 X134.85 Y121.977 E26.42006
G1 X134.325 Y122.712 E26.46212
G1 X133.737 Y123.398 E26.50419
G1 X132.818 Y124.264 E26.56299
G1 X132.533 Y124.501 E26.58025
G1 X131.17 Y125.657 E26.66347
G1 X130.325 Y126.389 E26.71552
G1 X129.616 Y126.949 E26.75759
G1 X128.593 Y127.599 E26.81403
G1 X128.483 Y127.66 E26.81989
G1 X127.674 Y128.063 E26.86197
G1 X126.833 Y128.392 E26.90402
G1 X125.967 Y128.646 E26.94605
G1 X125.081 Y128.822 E26.98811
G1 X123.837 Y128.936 E27.04628
G1 X123.498 Y128.946 E27.06207
G1 X123.197 Y128.95 E27.07609
G1 X118.453 Y128.95 E27.29699
G1 X115.851 Y128.954 E27.41815
G1 X115.169 Y128.945 E27.44991
G1 X114.902 Y128.938 E27.46234
G1 X114.683 Y128.929 E27.47255
G1 X112.007 Y128.859 E27.5972
G1 X109.48 Y128.865 E27.71487
G1 X106.944 Y128.943 E27.83301
G1 X106.231 Y128.983 E27.86626
G1 X105.237 Y129.027 E27.91259
G1 X104.573 Y129.035 E27.94351
G1 X100.548 Y128.951 E28.13097
G1 X97.006 Y128.949 E28.2959
G1 X96.349 Y128.94 E28.3265
G1 X95.448 Y128.888 E28.36852
G1 X94.554 Y128.756 E28.4106
G1 X93.676 Y128.545 E28.45265
G1 X92.82 Y128.258 E28.49469
G1 X92.062 Y127.93 E28.53315
G1 X91.898 Y127.851 E28.54163
G1 X91.103 Y127.424 E28.58365
G1 X90.348 Y126.928 E28.62571
G1 X89.723 Y126.437 E28.66272
G1 X89.306 Y126.082 E28.68822
G1 X87.934 Y124.882 E28.77309
G1 X87.278 Y124.334 E28.8129
