;FLAVOR:Marlin
;TIME:990
;Filament used: 0.24874m
;Layer height: 0.2
;MINX:96.2
;MINY:97.7
;MINZ:0.2
;MAXX:123.8
;MAXY:122.3
;MAXZ:22
;Generated with Creality Slicer 4.8.2-146
M140 S50
M105
M190 S50
M104 S200
M105
M109 S200
M82 ;absolute extrusion mode
M201 X500.00 Y500.00 Z100.00 E5000.00 ;Setup machine max acceleration
M203 X500.00 Y500.00 Z10.00 E50.00 ;Setup machine max feedrate
M204 P500.00 R1000.00 T500.00 ;Setup Print/Retract/Travel acceleration
M205 X8.00 Y8.00 Z0.40 E5.00 ;Setup Jerk
M220 S100 ;Reset Feedrate
M221 S100 ;Reset Flowrate

G28 ;Home

G92 E0 ;Reset Extruder
G1 Z2.0 F3000 ;Move Z Axis up
G1 X10.1 Y20 Z0.28 F5000.0 ;Move to start position
G1 X10.1 Y200.0 Z0.28 F1500.0 E15 ;Draw the first line
G1 X10.4 Y200.0 Z0.28 F5000.0 ;Move to side a little
G1 X10.4 Y20 Z0.28 F1500.0 E30 ;Draw the second line
G92 E0 ;Reset Extruder
G1 Z2.0 F3000 ;Move Z Axis up

G92 E0
G92 E0
G1 F2700 E-5
;LAYER_COUNT:110
;LAYER:0
M107
G0 F6000 X98.602 Y99.985 Z0.2
;TYPE:SKIRT
G1 F2700 E0
G1 F1200 X99.188 Y99.455 E0.02628
G1 X99.824 Y98.988 E0.05252
G1 X100.504 Y98.587 E0.07878
G1 X101.222 Y98.257 E0.10506
G1 X101.969 Y98.002 E0.13132
G1 X102.738 Y97.823 E0.15758
G1 X103.522 Y97.723 E0.18386
G1 X104.117 Y97.7 E0.20367
G1 X107.883 Y97.7 E0.32893
G1 X108.672 Y97.74 E0.3552
G1 X109.452 Y97.859 E0.38144
G1 X109.988 Y97.998 E0.39986
G1 X110.738 Y97.823 E0.42548
G1 X111.522 Y97.723 E0.45176
G1 X112.117 Y97.7 E0.47157
G1 X115.883 Y97.7 E0.59683
G1 X116.672 Y97.74 E0.6231
G1 X117.452 Y97.859 E0.64935
G1 X118.217 Y98.057 E0.67563
G1 X118.957 Y98.331 E0.70187
G1 X119.666 Y98.679 E0.72814
G1 X120.337 Y99.097 E0.75444
G1 X120.961 Y99.58 E0.78068
G1 X121.398 Y99.985 E0.8005
G1 X121.515 Y100.102 E0.806
G1 X122.045 Y100.688 E0.83228
G1 X122.512 Y101.324 E0.85852
G1 X122.913 Y102.004 E0.88478
G1 X123.243 Y102.722 E0.91106
G1 X123.498 Y103.469 E0.93732
G1 X123.677 Y104.238 E0.96358
G1 X123.777 Y105.022 E0.98986
G1 X123.8 Y105.617 E1.00967
G1 X123.8 Y114.383 E1.30123
G1 X123.76 Y115.172 E1.3275
G1 X123.641 Y115.952 E1.35375
G1 X123.443 Y116.717 E1.38003
G1 X123.169 Y117.457 E1.40627
G1 X122.821 Y118.166 E1.43254
G1 X122.403 Y118.837 E1.45884
G1 X121.92 Y119.461 E1.48508
G1 X121.515 Y119.898 E1.5049
G1 X121.398 Y120.015 E1.5104
G1 X120.812 Y120.545 E1.53668
G1 X120.176 Y121.012 E1.56293
G1 X119.496 Y121.413 E1.58918
G1 X118.778 Y121.743 E1.61546
G1 X118.031 Y121.998 E1.64172
G1 X117.262 Y122.177 E1.66798
G1 X116.478 Y122.277 E1.69427
G1 X115.883 Y122.3 E1.71407
G1 X112.117 Y122.3 E1.83933
G1 X111.328 Y122.26 E1.8656
G1 X110.548 Y122.141 E1.89185
G1 X110.012 Y122.002 E1.91026
G1 X109.262 Y122.177 E1.93588
G1 X108.478 Y122.277 E1.96217
G1 X107.883 Y122.3 E1.98197
G1 X104.117 Y122.3 E2.10723
G1 X103.328 Y122.26 E2.1335
G1 X102.548 Y122.141 E2.15975
G1 X101.783 Y121.943 E2.18603
G1 X101.043 Y121.669 E2.21228
G1 X100.334 Y121.321 E2.23854
G1 X99.663 Y120.903 E2.26484
G1 X99.039 Y120.42 E2.29108
G1 X98.602 Y120.015 E2.3109
G1 X98.485 Y119.898 E2.3164
G1 X97.955 Y119.312 E2.34268
G1 X97.488 Y118.676 E2.36893
G1 X97.087 Y117.996 E2.39518
G1 X96.757 Y117.278 E2.42147
G1 X96.502 Y116.531 E2.44772
G1 X96.323 Y115.762 E2.47398
G1 X96.223 Y114.978 E2.50027
G1 X96.2 Y114.383 E2.52007
G1 X96.2 Y105.617 E2.81163
G1 X96.24 Y104.828 E2.83791
G1 X96.359 Y104.048 E2.86415
G1 X96.557 Y103.283 E2.89043
G1 X96.831 Y102.543 E2.91668
G1 X97.179 Y101.834 E2.94295
G1 X97.597 Y101.163 E2.96924
G1 X98.056 Y100.57 E2.99418
G0 F1080 X98.08 Y100.539
G0 X98.485 Y100.102
G0 X98.602 Y99.985
G0 F6000 X98.884 Y100.267
G1 F1200 X99.456 Y99.753 E3.01976
G1 X100.078 Y99.3 E3.04535
G1 X100.743 Y98.914 E3.07092
G1 X101.445 Y98.599 E3.09652
G1 X102.176 Y98.359 E3.12211
G1 X102.927 Y98.196 E3.14767
G1 X103.692 Y98.112 E3.17326
G1 X104.117 Y98.1 E3.1874
G1 X107.883 Y98.1 E3.31266
G1 X108.651 Y98.14 E3.33824
G1 X109.411 Y98.259 E3.36383
G1 X110.001 Y98.416 E3.38413
G1 X110.176 Y98.359 E3.39025
G1 X110.927 Y98.196 E3.41581
G1 X111.692 Y98.112 E3.44141
G1 X112.117 Y98.1 E3.45555
G1 X115.883 Y98.1 E3.58081
G1 X116.651 Y98.14 E3.60639
G1 X117.411 Y98.259 E3.63197
G1 X118.154 Y98.457 E3.65755
G1 X118.873 Y98.731 E3.68314
G1 X119.559 Y99.078 E3.70871
G1 X120.206 Y99.494 E3.73429
G1 X120.806 Y99.975 E3.75987
G1 X121.116 Y100.267 E3.77403
G1 X121.233 Y100.384 E3.77954
G1 X121.747 Y100.956 E3.80512
G1 X122.2 Y101.578 E3.83071
G1 X122.586 Y102.243 E3.85628
G1 X122.901 Y102.945 E3.88187
G1 X123.141 Y103.676 E3.90746
G1 X123.304 Y104.427 E3.93302
G1 X123.388 Y105.192 E3.95862
G1 X123.4 Y105.617 E3.97276
G1 X123.4 Y114.383 E4.26432
G1 X123.36 Y115.151 E4.2899
G1 X123.241 Y115.911 E4.31548
G1 X123.043 Y116.654 E4.34106
G1 X122.769 Y117.373 E4.36665
G1 X122.422 Y118.059 E4.39222
G1 X122.006 Y118.706 E4.4178
G1 X121.525 Y119.306 E4.44338
G1 X121.233 Y119.616 E4.45755
G1 X121.116 Y119.733 E4.46305
G1 X120.544 Y120.247 E4.48863
G1 X119.922 Y120.7 E4.51422
G1 X119.257 Y121.086 E4.53979
G1 X118.555 Y121.401 E4.56538
G1 X117.824 Y121.641 E4.59097
G1 X117.073 Y121.804 E4.61653
G1 X116.308 Y121.888 E4.64213
G1 X115.883 Y121.9 E4.65627
G1 X112.117 Y121.9 E4.78153
G1 X111.349 Y121.86 E4.80711
G1 X110.589 Y121.741 E4.83269
G1 X109.999 Y121.584 E4.853
G1 X109.824 Y121.641 E4.85912
G1 X109.073 Y121.804 E4.88468
G1 X108.308 Y121.888 E4.91028
G1 X107.883 Y121.9 E4.92442
G1 X104.117 Y121.9 E5.04968
G1 X103.349 Y121.86 E5.07526
G1 X102.589 Y121.741 E5.10084
G1 X101.846 Y121.543 E5.12642
G1 X101.127 Y121.269 E5.15201
G1 X100.441 Y120.922 E5.17758
G1 X99.794 Y120.506 E5.20316
G1 X99.194 Y120.025 E5.22874
G1 X98.884 Y119.733 E5.2429
G1 X98.767 Y119.616 E5.24841
G1 X98.253 Y119.044 E5.27398
G1 X97.8 Y118.422 E5.29958
G1 X97.414 Y117.757 E5.32515
G1 X97.099 Y117.055 E5.35074
G1 X96.859 Y116.324 E5.37633
G1 X96.696 Y115.573 E5.40189
G1 X96.612 Y114.808 E5.42749
G1 X96.6 Y114.383 E5.44163
G1 X96.6 Y105.617 E5.73319
G1 X96.64 Y104.849 E5.75877
G1 X96.759 Y104.089 E5.78435
G1 X96.957 Y103.346 E5.80993
G1 X97.231 Y102.627 E5.83552
G1 X97.578 Y101.941 E5.86109
G1 X97.994 Y101.294 E5.88667
G1 X98.344 Y100.857 E5.90529
G0 F1080 X98.475 Y100.694
G0 X98.767 Y100.384
G0 X98.884 Y100.267
G0 F6000 X99.167 Y100.55
G1 F1200 X99.724 Y100.05 E5.93019
G1 X100.33 Y99.613 E5.95504
G1 X100.98 Y99.242 E5.97993
G1 X101.666 Y98.943 E6.00482
G1 X102.38 Y98.719 E6.02971
G1 X103.113 Y98.572 E6.05457
G1 X104.117 Y98.5 E6.08805
G1 X107.883 Y98.5 E6.21331
G1 X108.63 Y98.54 E6.23819
G1 X109.368 Y98.659 E6.26306
G1 X110.01 Y98.835 E6.2852
G1 X110.38 Y98.719 E6.29809
G1 X111.113 Y98.572 E6.32296
G1 X112.117 Y98.5 E6.35644
G1 X115.883 Y98.5 E6.48169
G1 X116.63 Y98.54 E6.50658
G1 X117.368 Y98.659 E6.53144
G1 X118.09 Y98.857 E6.55634
G1 X118.786 Y99.13 E6.58121
G1 X119.449 Y99.477 E6.60609
G1 X120.072 Y99.892 E6.63099
G1 X120.833 Y100.55 E6.66445
G1 X120.95 Y100.667 E6.66996
G1 X121.45 Y101.224 E6.69485
G1 X121.887 Y101.83 E6.7197
G1 X122.258 Y102.48 E6.74459
G1 X122.557 Y103.166 E6.76948
G1 X122.781 Y103.88 E6.79437
G1 X122.928 Y104.613 E6.81924
G1 X123 Y105.617 E6.85272
G1 X123 Y114.383 E7.14427
G1 X122.96 Y115.13 E7.16915
G1 X122.841 Y115.868 E7.19402
G1 X122.643 Y116.59 E7.21892
G1 X122.37 Y117.286 E7.24378
G1 X122.023 Y117.949 E7.26867
G1 X121.608 Y118.572 E7.29357
G1 X120.95 Y119.333 E7.32703
G1 X120.833 Y119.45 E7.33254
G1 X120.276 Y119.95 E7.35743
G1 X119.67 Y120.387 E7.38228
G1 X119.02 Y120.758 E7.40717
G1 X118.334 Y121.057 E7.43206
G1 X117.62 Y121.281 E7.45695
G1 X116.887 Y121.428 E7.48182
G1 X115.883 Y121.5 E7.5153
G1 X112.117 Y121.5 E7.64055
G1 X111.37 Y121.46 E7.66543
G1 X110.632 Y121.341 E7.6903
G1 X109.99 Y121.165 E7.71244
G1 X109.62 Y121.281 E7.72533
G1 X108.887 Y121.428 E7.7502
G1 X107.883 Y121.5 E7.78368
G1 X104.117 Y121.5 E7.90894
G1 X103.37 Y121.46 E7.93382
G1 X102.632 Y121.341 E7.95868
G1 X101.91 Y121.143 E7.98358
G1 X101.214 Y120.87 E8.00845
G1 X100.551 Y120.523 E8.03334
G1 X99.928 Y120.108 E8.05823
G1 X99.167 Y119.45 E8.09169
G1 X99.05 Y119.333 E8.0972
G1 X98.55 Y118.776 E8.12209
G1 X98.113 Y118.17 E8.14694
G1 X97.742 Y117.52 E8.17183
G1 X97.443 Y116.834 E8.19672
G1 X97.219 Y116.12 E8.22161
G1 X97.072 Y115.387 E8.24648
G1 X97 Y114.383 E8.27996
G1 X97 Y105.617 E8.57152
G1 X97.04 Y104.87 E8.5964
G1 X97.159 Y104.132 E8.62126
G1 X97.357 Y103.41 E8.64616
G1 X97.63 Y102.714 E8.67103
G1 X97.977 Y102.051 E8.69592
G1 X98.392 Y101.428 E8.72081
G1 X98.635 Y101.147 E8.73317
G0 F1080 X99.05 Y100.667
G0 X99.167 Y100.55
G0 F6000 X99.45 Y100.833
G1 F1200 X99.991 Y100.349 E8.75731
G1 X100.582 Y99.926 E8.78149
G1 X101.216 Y99.572 E8.80564
G1 X101.885 Y99.289 E8.8298
G1 X102.581 Y99.081 E8.85396
G1 X103.296 Y98.951 E8.87813
G1 X104.117 Y98.9 E8.90549
G1 X107.883 Y98.9 E9.03075
G1 X108.608 Y98.94 E9.0549
G1 X109.325 Y99.059 E9.07907
G1 X110.008 Y99.252 E9.10268
G1 X110.581 Y99.081 E9.12256
G1 X111.296 Y98.951 E9.14673
G1 X112.117 Y98.9 E9.17409
G1 X115.883 Y98.9 E9.29935
G1 X116.608 Y98.94 E9.3235
G1 X117.325 Y99.059 E9.34768
G1 X118.024 Y99.257 E9.37184
G1 X118.697 Y99.53 E9.39599
G1 X119.336 Y99.875 E9.42015
G1 X119.933 Y100.289 E9.44431
G1 X120.55 Y100.833 E9.47167
G1 X120.667 Y100.95 E9.47717
G1 X121.151 Y101.491 E9.50132
G1 X121.574 Y102.082 E9.52549
G1 X121.928 Y102.716 E9.54964
G1 X122.211 Y103.385 E9.5738
G1 X122.419 Y104.081 E9.59796
G1 X122.549 Y104.796 E9.62213
G1 X122.6 Y105.617 E9.64949
G1 X122.6 Y114.383 E9.94105
G1 X122.56 Y115.108 E9.9652
G1 X122.441 Y115.825 E9.98937
G1 X122.243 Y116.524 E10.01354
G1 X121.97 Y117.197 E10.03769
G1 X121.625 Y117.836 E10.06185
G1 X121.211 Y118.433 E10.08601
G1 X120.667 Y119.05 E10.11337
G1 X120.55 Y119.167 E10.11887
G1 X120.009 Y119.651 E10.14302
G1 X119.418 Y120.074 E10.16719
G1 X118.784 Y120.428 E10.19134
G1 X118.115 Y120.711 E10.2155
G1 X117.419 Y120.919 E10.23966
G1 X116.704 Y121.049 E10.26383
G1 X115.883 Y121.1 E10.29119
G1 X112.117 Y121.1 E10.41645
G1 X111.392 Y121.06 E10.4406
G1 X110.675 Y120.941 E10.46477
G1 X109.992 Y120.748 E10.48838
G1 X109.419 Y120.919 E10.50827
G1 X108.704 Y121.049 E10.53244
G1 X107.883 Y121.1 E10.5598
G1 X104.117 Y121.1 E10.68506
G1 X103.392 Y121.06 E10.70921
G1 X102.675 Y120.941 E10.73338
G1 X101.976 Y120.743 E10.75754
G1 X101.303 Y120.47 E10.7817
G1 X100.664 Y120.125 E10.80585
G1 X100.067 Y119.711 E10.83002
G1 X99.45 Y119.167 E10.85737
G1 X99.333 Y119.05 E10.86288
G1 X98.849 Y118.509 E10.88702
G1 X98.426 Y117.918 E10.91119
G1 X98.072 Y117.284 E10.93535
G1 X97.789 Y116.615 E10.95951
G1 X97.581 Y115.919 E10.98367
G1 X97.451 Y115.204 E11.00784
G1 X97.4 Y114.383 E11.0352
G1 X97.4 Y105.617 E11.32675
G1 X97.44 Y104.892 E11.3509
G1 X97.559 Y104.175 E11.37508
G1 X97.757 Y103.476 E11.39924
G1 X98.03 Y102.803 E11.4234
G1 X98.375 Y102.164 E11.44755
G1 X98.789 Y101.567 E11.47171
G1 X98.913 Y101.426 E11.47796
G0 F1080 X99.333 Y100.95
G0 X99.45 Y100.833
G0 F6000 X99.733 Y101.116
G1 F1200 X100.258 Y100.647 E11.50137
G1 X100.833 Y100.241 E11.52479
G1 X101.451 Y99.903 E11.54821
G1 X102.102 Y99.636 E11.57162
G1 X102.78 Y99.446 E11.59504
G1 X103.475 Y99.333 E11.61845
G1 X104.117 Y99.3 E11.63984
G1 X107.883 Y99.3 E11.76509
G1 X108.586 Y99.34 E11.78851
G1 X109.28 Y99.459 E11.81193
G1 X109.955 Y99.657 E11.83533
G1 X110.002 Y99.677 E11.83703
G1 X110.102 Y99.636 E11.84062
G1 X110.78 Y99.446 E11.86404
G1 X111.475 Y99.333 E11.88746
G1 X112.117 Y99.3 E11.90884
G1 X115.883 Y99.3 E12.0341
G1 X116.586 Y99.34 E12.05752
G1 X117.28 Y99.459 E12.08094
G1 X117.955 Y99.657 E12.10434
G1 X118.604 Y99.929 E12.12774
G1 X119.218 Y100.274 E12.15117
G1 X119.789 Y100.685 E12.17456
G1 X120.267 Y101.116 E12.19597
G1 X120.384 Y101.233 E12.20148
G1 X120.853 Y101.758 E12.22489
G1 X121.259 Y102.333 E12.2483
G1 X121.597 Y102.951 E12.27173
G1 X121.864 Y103.602 E12.29513
G1 X122.054 Y104.28 E12.31855
G1 X122.167 Y104.975 E12.34197
G1 X122.2 Y105.617 E12.36335
G1 X122.2 Y114.383 E12.65491
G1 X122.16 Y115.086 E12.67833
G1 X122.041 Y115.78 E12.70175
G1 X121.843 Y116.455 E12.72515
G1 X121.571 Y117.104 E12.74855
G1 X121.226 Y117.718 E12.77198
G1 X120.815 Y118.289 E12.79537
G1 X120.384 Y118.767 E12.81678
G1 X120.267 Y118.884 E12.82228
G1 X119.742 Y119.353 E12.8457
G1 X119.167 Y119.759 E12.86911
G1 X118.549 Y120.097 E12.89254
G1 X117.898 Y120.364 E12.91594
G1 X117.22 Y120.554 E12.93936
G1 X116.525 Y120.667 E12.96278
G1 X115.883 Y120.7 E12.98416
G1 X112.117 Y120.7 E13.10942
G1 X111.414 Y120.66 E13.13284
G1 X110.72 Y120.541 E13.15626
G1 X110.045 Y120.343 E13.17965
G1 X109.998 Y120.323 E13.18135
G1 X109.898 Y120.364 E13.18495
G1 X109.22 Y120.554 E13.20837
G1 X108.525 Y120.667 E13.23179
G1 X107.883 Y120.7 E13.25317
G1 X104.117 Y120.7 E13.37843
G1 X103.414 Y120.66 E13.40185
G1 X102.72 Y120.541 E13.42526
G1 X102.045 Y120.343 E13.44866
G1 X101.396 Y120.071 E13.47207
G1 X100.782 Y119.726 E13.49549
G1 X100.211 Y119.315 E13.51889
G1 X99.733 Y118.884 E13.5403
G1 X99.616 Y118.767 E13.5458
G1 X99.147 Y118.242 E13.56922
G1 X98.741 Y117.667 E13.59263
G1 X98.403 Y117.049 E13.61605
G1 X98.136 Y116.398 E13.63946
G1 X97.946 Y115.72 E13.66288
G1 X97.833 Y115.025 E13.6863
G1 X97.8 Y114.383 E13.70768
G1 X97.8 Y105.617 E13.99924
G1 X97.84 Y104.914 E14.02266
G1 X97.959 Y104.22 E14.04607
G1 X98.157 Y103.545 E14.06947
G1 X98.429 Y102.896 E14.09288
G1 X98.774 Y102.282 E14.1163
G1 X99.185 Y101.711 E14.1397
G1 X99.191 Y101.705 E14.13998
G0 F1080 X99.616 Y101.233
G0 X99.733 Y101.116
G0 F6000 X100.016 Y101.399
G1 F1200 X100.525 Y100.946 E14.16265
G1 X101.083 Y100.557 E14.18527
G1 X101.683 Y100.235 E14.20792
G1 X102.317 Y99.986 E14.23057
G1 X102.976 Y99.813 E14.25323
G1 X103.65 Y99.719 E14.27587
G1 X104.117 Y99.7 E14.29141
G1 X107.883 Y99.7 E14.41667
G1 X108.563 Y99.74 E14.43933
G1 X109.233 Y99.859 E14.46196
G1 X109.885 Y100.056 E14.48461
G1 X110.005 Y100.108 E14.48896
G1 X110.317 Y99.986 E14.50011
G1 X110.976 Y99.813 E14.52277
G1 X111.65 Y99.719 E14.5454
G1 X112.117 Y99.7 E14.56095
G1 X115.883 Y99.7 E14.6862
G1 X116.563 Y99.74 E14.70886
G1 X117.233 Y99.859 E14.73149
G1 X117.885 Y100.056 E14.75415
G1 X118.509 Y100.328 E14.77679
G1 X119.097 Y100.672 E14.79945
G1 X119.641 Y101.082 E14.8221
G1 X119.984 Y101.399 E14.83764
G1 X120.101 Y101.516 E14.84314
G1 X120.554 Y102.025 E14.8658
G1 X120.943 Y102.583 E14.88843
G1 X121.265 Y103.183 E14.91108
G1 X121.514 Y103.817 E14.93373
G1 X121.687 Y104.476 E14.95639
G1 X121.781 Y105.15 E14.97903
G1 X121.8 Y105.617 E14.99457
G1 X121.8 Y114.383 E15.28613
G1 X121.76 Y115.063 E15.30879
G1 X121.641 Y115.733 E15.33142
G1 X121.444 Y116.385 E15.35407
G1 X121.172 Y117.009 E15.37671
G1 X120.828 Y117.597 E15.39937
G1 X120.418 Y118.141 E15.42203
G1 X120.101 Y118.484 E15.43756
G1 X119.984 Y118.601 E15.44307
G1 X119.475 Y119.054 E15.46573
G1 X118.917 Y119.443 E15.48835
G1 X118.317 Y119.765 E15.511
G1 X117.683 Y120.014 E15.53366
G1 X117.024 Y120.187 E15.55632
G1 X116.35 Y120.281 E15.57895
G1 X115.883 Y120.3 E15.5945
G1 X112.117 Y120.3 E15.71975
G1 X111.437 Y120.26 E15.74241
G1 X110.767 Y120.141 E15.76504
G1 X110.115 Y119.944 E15.7877
G1 X109.995 Y119.892 E15.79205
G1 X109.683 Y120.014 E15.80319
G1 X109.024 Y120.187 E15.82585
G1 X108.35 Y120.281 E15.84848
G1 X107.883 Y120.3 E15.86403
G1 X104.117 Y120.3 E15.98929
G1 X103.437 Y120.26 E16.01194
G1 X102.767 Y120.141 E16.03458
G1 X102.115 Y119.944 E16.05723
G1 X101.491 Y119.672 E16.07987
G1 X100.903 Y119.328 E16.10253
G1 X100.359 Y118.918 E16.12519
G1 X100.016 Y118.601 E16.14072
G1 X99.899 Y118.484 E16.14622
G1 X99.446 Y117.975 E16.16889
G1 X99.057 Y117.417 E16.19151
G1 X98.735 Y116.817 E16.21416
G1 X98.486 Y116.183 E16.23681
G1 X98.313 Y115.524 E16.25947
G1 X98.219 Y114.85 E16.28211
G1 X98.2 Y114.383 E16.29765
G1 X98.2 Y105.617 E16.58921
