;FLAVOR:Marlin
;TIME:7475
;Filament used: 5.68592m
;Layer height: 0.28
;MINX:39.001
;MINY:53.608
;MINZ:0.28
;MAXX:180.998
;MAXY:175.602
;MAXZ:70
;Generated with Creality Slicer 4.8.2-146
M140 S50
M105
M190 S50
M104 S200
M105
M109 S200
M82 ;absolute extrusion mode
M201 X500.00 Y500.00 Z100.00 E5000.00 ;Setup machine max acceleration
M203 X500.00 Y500.00 Z10.00 E50.00 ;Setup machine max feedrate
M204 P500.00 R1000.00 T500.00 ;Setup Print/Retract/Travel acceleration
M205 X8.00 Y8.00 Z0.40 E5.00 ;Setup Jerk
M220 S100 ;Reset Feedrate
M221 S100 ;Reset Flowrate

G28 ;Home

G92 E0 ;Reset Extruder
G1 Z2.0 F3000 ;Move Z Axis up
G1 X10.1 Y20 Z0.28 F5000.0 ;Move to start position
G1 X10.1 Y200.0 Z0.28 F1500.0 E15 ;Draw the first line
G1 X10.4 Y200.0 Z0.28 F5000.0 ;Move to side a little
G1 X10.4 Y20 Z0.28 F1500.0 E30 ;Draw the second line
G92 E0 ;Reset Extruder
G1 Z2.0 F3000 ;Move Z Axis up

G92 E0
G92 E0
G1 F2700 E-5
;LAYER_COUNT:250
;LAYER:0
M107
G0 F6000 X43.984 Y56.596 Z0.28
;TYPE:SKIRT
G1 F2700 E0
G1 F1200 X44.964 Y55.874 E0.05668
G1 X45.08 Y55.798 E0.06314
G1 X45.49 Y55.542 E0.08564
G1 X45.692 Y55.422 E0.09659
G1 X46.758 Y54.865 E0.15259
G1 X46.879 Y54.81 E0.15878
G1 X47.376 Y54.599 E0.18392
G1 X47.608 Y54.507 E0.19554
G1 X48.494 Y54.198 E0.23924
G1 X49.033 Y54.051 E0.26525
G1 X49.297 Y53.986 E0.27791
G1 X50.217 Y53.801 E0.32161
G1 X50.812 Y53.724 E0.34954
G1 X51.342 Y53.67 E0.37435
G1 X52.254 Y53.615 E0.41689
G1 X52.634 Y53.608 E0.43459
G1 X53.05 Y53.608 E0.45396
G1 X54.132 Y53.629 E0.50435
G1 X54.883 Y53.669 E0.53937
G1 X55.406 Y53.715 E0.56382
G1 X56.114 Y53.801 E0.59703
G1 X56.63 Y53.891 E0.62142
G1 X56.851 Y53.935 E0.63191
G1 X57.307 Y54.035 E0.65365
G1 X57.727 Y54.143 E0.67384
G1 X57.965 Y54.209 E0.68534
G1 X58.34 Y54.32 E0.70355
G1 X58.881 Y54.502 E0.73013
G1 X59.121 Y54.59 E0.74204
G1 X59.848 Y54.887 E0.7786
G1 X60.128 Y55.013 E0.7929
G1 X60.913 Y55.405 E0.83376
G1 X61.124 Y55.521 E0.84497
G1 X61.682 Y55.849 E0.87511
G1 X63.697 Y57.116 E0.98594
G1 X65.845 Y58.381 E1.10202
G1 X68.102 Y59.629 E1.22211
G1 X70.291 Y60.758 E1.3368
G1 X72.593 Y61.865 E1.45574
G1 X74.857 Y62.874 E1.57116
G1 X77.213 Y63.847 E1.68985
G1 X79.572 Y64.745 E1.80738
G1 X81.939 Y65.566 E1.92404
G1 X84.304 Y66.316 E2.03957
G1 X86.762 Y67.018 E2.1586
G1 X89.216 Y67.645 E2.27654
G1 X91.634 Y68.188 E2.39194
G1 X94.139 Y68.679 E2.5108
G1 X96.59 Y69.088 E2.62651
G1 X99.104 Y69.434 E2.74467
G1 X101.562 Y69.702 E2.85981
G1 X104.127 Y69.908 E2.97963
G1 X106.611 Y70.038 E3.09545
G1 X109.137 Y70.097 E3.21311
G1 X111.659 Y70.087 E3.33054
G1 X114.18 Y70.004 E3.44799
G1 X116.662 Y69.852 E3.56378
G1 X119.19 Y69.625 E3.68197
G1 X121.695 Y69.328 E3.79943
G1 X124.175 Y68.964 E3.91615
G1 X126.653 Y68.528 E4.03331
G1 X129.102 Y68.026 E4.14971
G1 X131.583 Y67.442 E4.2684
G1 X133.996 Y66.803 E4.38463
G1 X136.419 Y66.087 E4.50228
G1 X138.812 Y65.305 E4.6195
G1 X141.206 Y64.448 E4.7379
G1 X143.509 Y63.548 E4.85304
G1 X145.844 Y62.559 E4.97112
G1 X148.14 Y61.509 E5.08868
G1 X150.389 Y60.403 E5.20538
G1 X152.619 Y59.227 E5.32277
G1 X154.828 Y57.98 E5.44089
G1 X156.969 Y56.692 E5.55723
G1 X157.468 Y56.374 E5.58479
G1 X158.173 Y55.937 E5.62341
G1 X158.47 Y55.76 E5.63951
G1 X158.898 Y55.513 E5.66252
G1 X159.928 Y54.988 E5.71635
G1 X160.234 Y54.852 E5.73194
G1 X160.672 Y54.669 E5.75405
G1 X161.222 Y54.465 E5.78136
G1 X161.443 Y54.39 E5.79223
G1 X161.929 Y54.238 E5.81594
G1 X162.372 Y54.117 E5.83732
G1 X162.635 Y54.051 E5.84995
G1 X163.313 Y53.903 E5.88226
G1 X163.589 Y53.852 E5.89533
G1 X164.078 Y53.773 E5.9184
G1 X164.179 Y53.759 E5.92315
G1 X165.03 Y53.675 E5.96296
G1 X165.53 Y53.645 E5.98629
G1 X165.982 Y53.627 E6.00735
G1 X166.885 Y53.61 E6.04941
G1 X167.244 Y53.609 E6.06612
G1 X167.751 Y53.616 E6.08973
G1 X168.409 Y53.645 E6.1204
G1 X168.68 Y53.665 E6.13306
G1 X169.611 Y53.774 E6.1767
G1 X170.215 Y53.888 E6.20533
G1 X170.71 Y53.996 E6.22892
G1 X171.617 Y54.235 E6.27259
G1 X172.281 Y54.464 E6.3053
G1 X172.386 Y54.504 E6.31053
G1 X172.872 Y54.702 E6.33497
G1 X173.101 Y54.802 E6.3466
G1 X174.215 Y55.366 E6.40474
G1 X174.303 Y55.417 E6.40948
G1 X174.658 Y55.632 E6.4288
G1 X174.883 Y55.774 E6.44119
G1 X175.988 Y56.571 E6.50463
G1 X176.077 Y56.644 E6.50999
G1 X176.354 Y56.879 E6.52691
G1 X176.541 Y57.043 E6.53849
G1 X177.432 Y57.918 E6.59664
G1 X177.511 Y58.005 E6.60211
G1 X177.817 Y58.358 E6.62387
G1 X177.987 Y58.562 E6.63623
G1 X178.557 Y59.307 E6.67991
G1 X178.904 Y59.837 E6.70941
G1 X179.053 Y60.079 E6.72264
G1 X179.51 Y60.898 E6.76631
G1 X179.749 Y61.404 E6.79237
G1 X179.941 Y61.839 E6.81451
G1 X180.283 Y62.713 E6.85821
G1 X180.577 Y63.726 E6.90733
G1 X180.641 Y63.994 E6.92016
G1 X180.82 Y64.915 E6.96385
G1 X180.888 Y65.463 E6.98956
G1 X180.937 Y65.957 E7.01268
G1 X180.981 Y66.57 E7.04129
G1 X180.994 Y67.009 E7.06174
G1 X180.998 Y67.356 E7.0779
G1 X180.998 Y67.629 E7.09061
G1 X180.988 Y68.383 E7.12573
G1 X180.97 Y68.891 E7.1494
G1 X180.96 Y69.059 E7.15723
G1 X180.898 Y69.736 E7.18889
G1 X180.854 Y70.097 E7.20582
G1 X180.678 Y71.13 E7.25462
G1 X180.575 Y71.598 E7.27693
G1 X180.331 Y72.515 E7.32112
G1 X180.306 Y72.595 E7.32502
G1 X180.147 Y73.066 E7.34817
G1 X180.065 Y73.292 E7.35936
G1 X179.81 Y73.933 E7.39148
G1 X179.766 Y74.034 E7.39661
G1 X179.578 Y74.443 E7.41757
G1 X178.954 Y75.727 E7.48405
G1 X178.694 Y76.244 E7.51099
G1 X177.621 Y78.539 E7.62896
G1 X176.632 Y80.817 E7.7446
G1 X175.676 Y83.199 E7.86412
G1 X174.821 Y85.524 E7.97947
G1 X174.021 Y87.902 E8.09629
G1 X173.277 Y90.338 E8.2149
G1 X172.624 Y92.718 E8.32982
G1 X172.016 Y95.202 E8.4489
G1 X171.481 Y97.694 E8.56758
G1 X171.037 Y100.096 E8.68132
G1 X170.642 Y102.626 E8.80055
G1 X170.326 Y105.105 E8.91692
G1 X170.077 Y107.628 E9.03497
G1 X169.901 Y110.142 E9.15232
G1 X169.797 Y112.628 E9.26818
G1 X169.763 Y115.152 E9.38572
G1 X169.801 Y117.676 E9.50326
G1 X169.91 Y120.206 E9.62118
G1 X170.088 Y122.705 E9.73784
G1 X170.338 Y125.198 E9.8545
G1 X170.661 Y127.707 E9.9723
G1 X171.052 Y130.191 E10.08939
G1 X171.514 Y132.665 E10.20658
G1 X172.046 Y135.13 E10.324
G1 X172.634 Y137.528 E10.43897
G1 X173.319 Y140.006 E10.55868
G1 X174.051 Y142.392 E10.6749
G1 X174.868 Y144.809 E10.7937
G1 X175.725 Y147.126 E10.90873
G1 X176.675 Y149.489 E11.02732
G1 X177.665 Y151.761 E11.14272
G1 X179.289 Y155.164 E11.3183
G1 X179.463 Y155.511 E11.33638
G1 X179.703 Y156.022 E11.36266
G1 X179.801 Y156.245 E11.37401
G1 X180.1 Y156.999 E11.41177
G1 X180.168 Y157.191 E11.42126
G1 X180.449 Y158.112 E11.4661
G1 X180.55 Y158.503 E11.4849
G1 X180.762 Y159.516 E11.53309
G1 X180.83 Y159.941 E11.55313
G1 X180.945 Y160.967 E11.60121
G1 X180.964 Y161.26 E11.61488
G1 X180.986 Y161.811 E11.64056
G1 X180.989 Y162.016 E11.6501
G1 X180.963 Y162.944 E11.69333
G1 X180.94 Y163.273 E11.70869
G1 X180.835 Y164.205 E11.75236
G1 X180.716 Y164.841 E11.78249
G1 X180.62 Y165.283 E11.80355
G1 X180.382 Y166.19 E11.84722
G1 X180.06 Y167.093 E11.89186
G1 X179.953 Y167.356 E11.90508
G1 X179.563 Y168.209 E11.94875
G1 X179.263 Y168.758 E11.97788
G1 X179.023 Y169.169 E12.00004
G1 X178.516 Y169.958 E12.04371
G1 X178.137 Y170.465 E12.07319
G1 X178.079 Y170.538 E12.07753
G1 X177.768 Y170.912 E12.10018
G1 X177.595 Y171.111 E12.11246
G1 X176.641 Y172.079 E12.17574
G1 X176.553 Y172.158 E12.18125
G1 X176.217 Y172.448 E12.20192
G1 X176.02 Y172.611 E12.21382
G1 X175.036 Y173.337 E12.27076
G1 X174.92 Y173.413 E12.27722
G1 X174.538 Y173.653 E12.29823
G1 X174.334 Y173.775 E12.3093
G1 X173.163 Y174.382 E12.37071
G1 X173.044 Y174.435 E12.37678
G1 X172.654 Y174.6 E12.3965
G1 X172.424 Y174.692 E12.40803
G1 X171.179 Y175.106 E12.46913
G1 X171.063 Y175.137 E12.47472
G1 X170.637 Y175.242 E12.49515
G1 X170.388 Y175.298 E12.50703
G1 X169.178 Y175.5 E12.56415
G1 X169.069 Y175.512 E12.56926
G1 X168.534 Y175.558 E12.59426
G1 X168.255 Y175.575 E12.60728
G1 X167.374 Y175.593 E12.64831
G1 X166.907 Y175.584 E12.67006
G1 X166.194 Y175.547 E12.70331
G1 X165.625 Y175.499 E12.72989
G1 X164.412 Y175.328 E12.78694
G1 X163.009 Y175.05 E12.85354
G1 X162.722 Y174.99 E12.86719
G1 X160.268 Y174.531 E12.98344
G1 X157.759 Y174.137 E13.1017
G1 X155.288 Y173.819 E13.21771
G1 X152.747 Y173.565 E13.33662
G1 X150.27 Y173.389 E13.45225
G1 X147.737 Y173.28 E13.5703
G1 X145.222 Y173.243 E13.68743
G1 X142.691 Y173.278 E13.80529
G1 X140.205 Y173.382 E13.92115
G1 X137.69 Y173.558 E14.03855
G1 X135.184 Y173.806 E14.15581
G1 X132.695 Y174.124 E14.27265
G1 X129.357 Y174.66 E14.43007
G1 X128.153 Y174.875 E14.48702
G1 X127.223 Y175.001 E14.53072
G1 X126.466 Y175.044 E14.56603
G1 X126.158 Y175.051 E14.58037
G1 X125.763 Y175.053 E14.59876
G1 X125.066 Y175.043 E14.63122
G1 X121.086 Y174.958 E14.81659
G1 X99.171 Y174.957 E15.83704
G1 X95.203 Y175.039 E16.02185
G1 X94.92 Y175.047 E16.03503
G1 X94.538 Y175.052 E16.05282
G1 X94.235 Y175.052 E16.06693
G1 X93.821 Y175.046 E16.08621
G1 X92.884 Y174.992 E16.12991
G1 X91.988 Y174.865 E16.17205
G1 X91.844 Y174.838 E16.17887
G1 X89.236 Y174.391 E16.30208
G1 X86.767 Y174.04 E16.41821
G1 X84.235 Y173.752 E16.53687
G1 X81.752 Y173.541 E16.6529
G1 X79.252 Y173.398 E16.7695
G1 X76.704 Y173.326 E16.8882
G1 X74.215 Y173.326 E17.0041
G1 X71.682 Y173.398 E17.12209
G1 X69.145 Y173.541 E17.24041
G1 X66.684 Y173.75 E17.35542
G1 X64.164 Y174.036 E17.47351
G1 X61.665 Y174.391 E17.59105
G1 X59.213 Y174.812 E17.70689
G1 X57.859 Y175.087 E17.77123
G1 X56.784 Y175.294 E17.8222
G1 X56.261 Y175.385 E17.84692
G1 X55.914 Y175.439 E17.86327
G1 X55.769 Y175.459 E17.87009
G1 X55.311 Y175.512 E17.89156
G1 X55.091 Y175.533 E17.90185
G1 X54.247 Y175.581 E17.94121
G1 X53.15 Y175.601 E17.9923
G1 X52.788 Y175.602 E18.00916
G1 X52.241 Y175.594 E18.03463
G1 X51.782 Y175.578 E18.05602
G1 X51.277 Y175.543 E18.07959
G1 X51.008 Y175.518 E18.09217
G1 X49.835 Y175.345 E18.14738
G1 X49.712 Y175.32 E18.15322
G1 X49.183 Y175.198 E18.1785
G1 X48.944 Y175.137 E18.18999
G1 X47.751 Y174.76 E18.24825
G1 X47.617 Y174.709 E18.25492
G1 X47.146 Y174.517 E18.27861
G1 X46.932 Y174.424 E18.28947
G1 X45.897 Y173.908 E18.34332
G1 X45.791 Y173.848 E18.349
G1 X45.31 Y173.559 E18.37513
G1 X45.085 Y173.416 E18.38754
G1 X44.113 Y172.722 E18.44315
G1 X44.023 Y172.65 E18.44852
G1 X43.629 Y172.319 E18.47248
G1 X43.446 Y172.158 E18.48383
G1 X42.527 Y171.247 E18.54408
G1 X42.448 Y171.159 E18.54959
G1 X42.183 Y170.853 E18.56844
G1 X42.013 Y170.649 E18.58081
G1 X41.443 Y169.904 E18.62448
G1 X41.092 Y169.368 E18.65432
G1 X40.942 Y169.124 E18.66766
G1 X40.485 Y168.305 E18.71133
G1 X40.246 Y167.796 E18.73751
G1 X40.054 Y167.36 E18.75969
G1 X39.713 Y166.487 E18.80334
G1 X39.414 Y165.449 E18.85363
G1 X39.353 Y165.19 E18.86602
G1 X39.177 Y164.269 E18.90969
G1 X39.116 Y163.777 E18.93277
G1 X39.064 Y163.264 E18.95678
G1 X39.013 Y162.478 E18.99346
G1 X39.006 Y162.174 E19.00762
G1 X39.002 Y161.811 E19.02452
G1 X39.002 Y161.539 E19.03719
G1 X39.012 Y160.81 E19.07113
G1 X39.034 Y160.257 E19.0969
G1 X39.044 Y160.101 E19.10418
G1 X39.102 Y159.47 E19.13369
G1 X39.146 Y159.11 E19.15058
G1 X39.325 Y158.068 E19.19981
G1 X39.429 Y157.598 E19.22222
G1 X39.655 Y156.74 E19.26354
G1 X39.679 Y156.662 E19.26734
G1 X39.847 Y156.16 E19.29199
G1 X39.929 Y155.933 E19.30323
G1 X40.19 Y155.277 E19.3361
G1 X40.234 Y155.176 E19.34123
G1 X40.422 Y154.767 E19.36219
G1 X41.035 Y153.503 E19.4276
G1 X42.139 Y151.145 E19.54884
G1 X43.126 Y148.868 E19.6644
G1 X44.075 Y146.505 E19.78297
G1 X44.939 Y144.15 E19.89978
G1 X45.734 Y141.783 E20.01605
G1 X46.476 Y139.353 E20.13435
G1 X47.134 Y136.956 E20.2501
G1 X47.736 Y134.49 E20.3683
G1 X48.271 Y131.999 E20.48693
G1 X48.717 Y129.579 E20.60152
G1 X49.113 Y127.041 E20.72113
G1 X49.425 Y124.585 E20.83641
G1 X49.672 Y122.07 E20.95408
G1 X49.848 Y119.571 E21.07073
G1 X49.953 Y117.027 E21.18929
G1 X49.987 Y114.515 E21.30627
G1 X49.949 Y112.014 E21.42274
G1 X49.839 Y109.483 E21.54071
G1 X49.659 Y106.972 E21.65793
G1 X49.411 Y104.496 E21.7738
G1 X49.085 Y101.968 E21.89249
G1 X48.697 Y99.501 E22.00878
G1 X48.231 Y97.009 E22.12682
G1 X47.699 Y94.552 E22.24388
G1 X47.112 Y92.159 E22.35862
G1 X46.424 Y89.673 E22.47873
G1 X45.691 Y87.284 E22.59509
G1 X44.88 Y84.886 E22.71296
G1 X44.015 Y82.547 E22.82908
G1 X43.065 Y80.19 E22.94741
G1 X42.067 Y77.901 E23.06369
G1 X40.982 Y75.591 E23.18253
G1 X40.594 Y74.812 E23.22305
G1 X40.512 Y74.643 E23.2318
G1 X40.354 Y74.302 E23.2493
G1 X40.22 Y74 E23.26468
G1 X40.026 Y73.534 E23.28819
G1 X39.795 Y72.903 E23.31947
G1 X39.709 Y72.643 E23.33223
G1 X39.465 Y71.792 E23.37345
G1 X39.418 Y71.599 E23.3827
G1 X39.245 Y70.74 E23.4235
G1 X39.175 Y70.304 E23.44406
G1 X39.058 Y69.258 E23.49307
G1 X39.032 Y68.849 E23.51216
G1 X39.016 Y68.501 E23.52838
G1 X39.007 Y68.218 E23.54156
G1 X39.001 Y67.939 E23.55456
G1 X39.001 Y67.556 E23.57239
G1 X39.011 Y66.849 E23.60531
G1 X39.042 Y66.173 E23.63682
G1 X39.064 Y65.883 E23.65037
G1 X39.174 Y64.952 E23.69402
G1 X39.283 Y64.378 E23.72123
G1 X39.383 Y63.918 E23.74315
G1 X39.621 Y63.011 E23.78681
G1 X39.947 Y62.101 E23.83182
G1 X40.051 Y61.846 E23.84464
G1 X40.441 Y60.993 E23.88832
G1 X40.737 Y60.453 E23.91699
G1 X40.977 Y60.042 E23.93915
G1 X41.484 Y59.253 E23.98282
G1 X41.886 Y58.717 E24.01402
G1 X41.954 Y58.632 E24.01909
G1 X42.252 Y58.276 E24.04071
G1 X42.415 Y58.089 E24.05226
G1 X43.353 Y57.136 E24.11452
G1 X43.442 Y57.056 E24.1201
G1 X43.549 Y56.964 E24.12667
G0 F1080 X43.788 Y56.758
G0 X43.984 Y56.596
G0 F6000 X44.239 Y56.905
G1 F1200 X45.183 Y56.209 E24.18128
G1 X45.299 Y56.133 E24.18774
G1 X45.694 Y55.886 E24.20943
G1 X45.896 Y55.766 E24.22037
G1 X46.924 Y55.229 E24.27438
G1 X47.045 Y55.174 E24.28056
G1 X47.524 Y54.97 E24.30481
G1 X47.756 Y54.878 E24.31643
G1 X48.625 Y54.577 E24.35925
G1 X49.129 Y54.439 E24.38358
G1 X49.393 Y54.374 E24.39624
G1 X50.296 Y54.193 E24.43913
G1 X50.853 Y54.122 E24.46527
G1 X51.383 Y54.068 E24.49008
G1 X52.262 Y54.015 E24.53108
G1 X52.642 Y54.008 E24.54878
G1 X53.043 Y54.008 E24.56745
G1 X54.125 Y54.029 E24.61785
G1 X54.848 Y54.068 E24.65156
G1 X55.371 Y54.114 E24.67601
G1 X56.054 Y54.196 E24.70804
G1 X56.552 Y54.283 E24.73158
G1 X56.773 Y54.327 E24.74207
G1 X57.216 Y54.425 E24.7632
G1 X57.621 Y54.528 E24.78266
G1 X57.859 Y54.594 E24.79416
G1 X58.222 Y54.702 E24.81179
G1 X58.743 Y54.878 E24.8374
G1 X58.983 Y54.966 E24.8493
G1 X59.684 Y55.252 E24.88456
G1 X59.964 Y55.378 E24.89885
G1 X60.721 Y55.755 E24.93823
G1 X60.932 Y55.871 E24.94944
G1 X61.469 Y56.187 E24.97846
G1 X63.497 Y57.462 E25.09
G1 X65.687 Y58.752 E25.20835
G1 X67.863 Y59.956 E25.32415
G1 X70.143 Y61.131 E25.44359
G1 X72.407 Y62.219 E25.56055
G1 X74.72 Y63.251 E25.67849
G1 X77.055 Y64.215 E25.79612
G1 X79.436 Y65.122 E25.91476
G1 X81.802 Y65.942 E26.03136
G1 X84.21 Y66.706 E26.14899
G1 X86.658 Y67.405 E26.26754
G1 X89.094 Y68.028 E26.38462
G1 X91.584 Y68.587 E26.50345
G1 X94.028 Y69.066 E26.61942
G1 X96.542 Y69.485 E26.7381
G1 X99.044 Y69.829 E26.8557
G1 X101.559 Y70.103 E26.9735
G1 X104.075 Y70.306 E27.09103
G1 X106.616 Y70.438 E27.20951
G1 X109.13 Y70.497 E27.32661
G1 X111.673 Y70.487 E27.44502
G1 X114.184 Y70.404 E27.56201
G1 X116.687 Y70.251 E27.67878
G1 X119.237 Y70.022 E27.79799
G1 X121.764 Y69.723 E27.91648
G1 X124.231 Y69.361 E28.03258
G1 X126.738 Y68.919 E28.15112
G1 X129.169 Y68.42 E28.26668
G1 X131.672 Y67.832 E28.3864
G1 X134.13 Y67.181 E28.5048
G1 X136.53 Y66.471 E28.62134
G1 X138.956 Y65.679 E28.74018
G1 X141.307 Y64.837 E28.85646
G1 X143.704 Y63.9 E28.9763
G1 X145.987 Y62.933 E29.09175
G1 X148.318 Y61.868 E29.21108
G1 X150.574 Y60.758 E29.32815
G1 X152.808 Y59.58 E29.44576
G1 X155.024 Y58.329 E29.56425
G1 X157.168 Y57.039 E29.68076
G1 X157.678 Y56.714 E29.70892
G1 X158.383 Y56.277 E29.74754
G1 X158.67 Y56.106 E29.7631
